!!!OTL: Meins Herzens Schoene.
!!!ARE: Europa, Mitteleuropa, Deutschland
!!!SCT: A0118
!!!TXL: @@GMH
!!!YEM: Copyright 1995, estate of Helmut Schaffrath.
**kern	**text
!! Mixed meters:  4/2; 6/2
*M4/2	*
*met(c|)	*
*clefC4	*
*k[b-]	*
*F:ion	*
=1	=1
!LO:TX:a:t=jon.	!
2ryy	.
{2F	Wach
2F	auf,
2F	meins
=2	=2
*lig	*
2.A/	her-
4G	.
2F	.
*Xlig	*
2F	-ʒen
=3	=3
*M6/4	*
1G	ſchö-
1A}	-ne,
{1A	ʒart
=4	=4
1c	al-
2c	-ler-
1A	-lieb-
2B-	-ſte
=5	=5
*lig	*
1G	mein!
1F}	}
*Xlig	*
=6	=6
{2r	.
2F	Jch
2F	hör
2F	ein
=7	=7
*lig	*
2.A/	ſüß
4G	.
2F	.
*Xlig	*
2F	ge-
=8	=8
*M6/2	*
1G	-tö-
1A}	-ne
{1A	von
=9	=9
1c	klei-
2c	-nen
1A	wald-
2B-	-vög-
=10	=10
*lig	*
1G	-lein,
1F}	}
*Xlig	*
{1A	Die
=11	=11
1A	hör
2A/	ich
1G	lieb-
2G	-lich
=12	=12
*M4/2	*
2F	ſin-
4E	.
4D	.
1G	.
=13	=13
1G	-gen,
2r}	.
{2C	ich
=14	=14
*M6/2	*
1F	mein
2F	ich
1F	ſäh
2F	des
=15	=15
2G	ta-
2G	-ges
1F	ſchein
2r}	.
{2F	vom
=16	=16
1G	O-
2G	-ri-
1G	-ent
2G	her
=17	=17
2.A	drin-
4B-	.
4c	.
4d	.
1c	.
4B-	.
4A	.
=18	=18
*M4/2	*
2G	.
2F	.
1G	.
=19	=19
0F/ll}	-gen.
==	==
!!!GTL: Tage- oder Wächterlieder
!!!AGN: Romanze, Ballade, Lied
!! Triller 1555 "Ein Gesang von Christo und seiner heiligen Gemeinde
!!    auf eine alte Tageweise"
!!!ONB: ESAC (Essen Associative Code) Database: ALTDEU
!!!AMT: irregular
!!!AIN: vox
!!!EED: Helmut Schaffrath
!!!EEV: 1.0
!!!RDF**kern: l = terminal long
!!!AMD: Ionian
!!!URL-scan: https://rosdok.uni-rostock.de/mcrviewer/recordIdentifier/rosdok_ppn738218359/iview2/phys_0290.iview2?x=-425.8853427895981&y=880.3172576872166&scale=0.4823261117445838&rotation=0&layout=singlePageLayout&logicalDiv=log_0008
!!!ENC: Anna Maria Matuszewska
!!!EEV: 2024/23/02
*-	*-
